src/assets/svg/trash.svg

<svg height="512pt" viewBox="-47 0 512 512" width="512pt" xmlns="http://www.w3.org/2000/svg"><path d="m416.875 114.441406-11.304688-33.886718c-4.304687-12.90625-16.339843-21.578126-29.941406-21.578126h-95.011718v-30.933593c0-15.460938-12.570313-28.042969-28.027344-28.042969h-87.007813c-15.453125 0-28.027343 12.582031-28.027343 28.042969v30.933593h-95.007813c-13.605469 0-25.640625 8.671876-29.945313 21.578126l-11.304687 33.886718c-2.574219 7.714844-1.2695312 16.257813 3.484375 22.855469 4.753906 6.597656 12.445312 10.539063 20.578125 10.539063h11.816406l26.007813 321.605468c1.933594 23.863282 22.183594 42.558594 46.109375 42.558594h204.863281c23.921875 0 44.175781-18.695312 46.105469-42.5625l26.007812-321.601562h6.542969c8.132812 0 15.824219-3.941407 20.578125-10.535157 4.753906-6.597656 6.058594-15.144531 3.484375-22.859375zm-249.320312-84.441406h83.0625v28.976562h-83.0625zm162.804687 437.019531c-.679687 8.402344-7.796875 14.980469-16.203125 14.980469h-204.863281c-8.40625 0-15.523438-6.578125-16.203125-14.980469l-25.816406-319.183593h288.898437zm-298.566406-349.183593 9.269531-27.789063c.210938-.640625.808594-1.070313 1.484375-1.070313h333.082031c.675782 0 1.269532.429688 1.484375 1.070313l9.269531 27.789063zm0 0"/><path d="m282.515625 465.957031c.265625.015625.527344.019531.792969.019531 7.925781 0 14.550781-6.210937 14.964844-14.21875l14.085937-270.398437c.429687-8.273437-5.929687-15.332031-14.199219-15.761719-8.292968-.441406-15.328125 5.925782-15.761718 14.199219l-14.082032 270.398437c-.429687 8.273438 5.925782 15.332032 14.199219 15.761719zm0 0"/><path d="m120.566406 451.792969c.4375 7.996093 7.054688 14.183593 14.964844 14.183593.273438 0 .554688-.007812.832031-.023437 8.269531-.449219 14.609375-7.519531 14.160157-15.792969l-14.753907-270.398437c-.449219-8.273438-7.519531-14.613281-15.792969-14.160157-8.269531.449219-14.609374 7.519532-14.160156 15.792969zm0 0"/><path d="m209.253906 465.976562c8.285156 0 15-6.714843 15-15v-270.398437c0-8.285156-6.714844-15-15-15s-15 6.714844-15 15v270.398437c0 8.285157 6.714844 15 15 15zm0 0"/></svg>

<svg height="512pt" viewBox="-47 0 512 512" width="512pt" xmlns="http://www.w3.org/2000/svg"><path d="M416.875 114.441L405.57 80.555a31.527 31.527 0 00-29.941-21.578h-95.012V28.043C280.617 12.582 268.047 0 252.59 0h-87.008c-15.453 0-28.027 12.582-28.027 28.043v30.934H42.547a31.528 31.528 0 00-29.945 21.578L1.297 114.44a25.426 25.426 0 003.484 22.856 25.427 25.427 0 0020.578 10.539h11.817L63.184 469.44C65.117 493.305 85.367 512 109.293 512h204.863c23.922 0 44.176-18.695 46.106-42.563l26.008-321.601h6.543A25.434 25.434 0 00413.39 137.3a25.434 25.434 0 003.484-22.86zM167.555 30h83.062v28.977h-83.062zm162.804 437.02c-.68 8.402-7.796 14.98-16.203 14.98H109.293c-8.406 0-15.523-6.578-16.203-14.98L67.273 147.836h288.899zM31.793 117.836l9.27-27.79c.21-.64.808-1.07 1.484-1.07h333.082c.676 0 1.27.43 1.484 1.07l9.27 27.79zm0 0"/><path d="M282.516 465.957c.265.016.527.02.793.02 7.925 0 14.55-6.211 14.964-14.22L312.36 181.36c.43-8.273-5.93-15.332-14.199-15.761-8.293-.442-15.328 5.925-15.762 14.199l-14.082 270.398c-.43 8.274 5.926 15.332 14.2 15.762zm0 0M120.566 451.793c.438 7.996 7.055 14.184 14.965 14.184.274 0 .555-.008.832-.024 8.27-.45 14.61-7.52 14.16-15.793L135.77 179.762c-.45-8.274-7.52-14.614-15.793-14.16-8.27.449-14.61 7.52-14.16 15.793zm0 0M209.254 465.977c8.285 0 15-6.715 15-15V180.578c0-8.285-6.715-15-15-15s-15 6.715-15 15v270.399c0 8.285 6.715 15 15 15zm0 0"/></svg>
